X:32
%%etbk:tnset id:11,pos:3,rep:3
%%etbk:site1 http://www.thesession.org/tunes/display/2348
T: Mike Flannagan's
T: The Cavan
Z: Piano Box Version by Martin Fleischmann (www.boxplayer.ch)
M: 4/4
L: 1/8
R: reel
K: Ador
!5!e!1!A (3AAA !1!A2!5!a!4!g| !2!e!1!A A!4!d !2!B!1!G!2!B!4!d | !5!eA (3AAA !3!c!4!d!2!e!4!g | !5!a!4!g!2!e!1!d !2!B!1!G!2!B!4!d :||
!1!c2 !4!gc !5!ac!4!gc | !1!c!5!a!4!g!2!e !1!d!2!B!1!G!2!B | !1!c2 gc acgc |afge !1!d!2!BGB |
!1!c2 gc acgc | cage dBGB |!1!A!2!B!3!c!4!d !2!e!3!f!4!g!2!e | age!1!d !2!BGBd ||

